symbolic/64x64/apps/goxel.svg

<svg xmlns="http://www.w3.org/2000/svg" width="64" height="64" version="1">
 <path style="opacity:0.2" transform="matrix(1.4,0,0,1.394301,16.340811,22.464064)" d="m 21.185135,4.5441666 9.999999,5.7735024 0,11.547005 -9.999999,5.773502 -10,-5.773503 10e-7,-11.547004 z"/>
 <path style="opacity:0.2" transform="matrix(1.4,0,0,1.394301,-11.659189,22.464064)" d="m 21.185135,4.5441666 9.999999,5.7735024 0,11.547005 -9.999999,5.773502 -10,-5.773503 10e-7,-11.547004 z"/>
 <path style="fill:#6e7e87" transform="matrix(1.4,0,0,1.394301,16.340811,21.464064)" d="m 21.185135,4.5441666 9.999999,5.7735024 0,11.547005 -9.999999,5.773502 -10,-5.773503 10e-7,-11.547004 z"/>
 <path style="opacity:0.25" d="m 46,27.800002 13.999998,8.05 v 16.1 L 46,60 Z"/>
 <path style="fill:#83929a" d="M 46,27.8 32,35.85 46,43.9 60,35.85 Z"/>
 <path style="fill:#2f5d7c" transform="matrix(1.4,0,0,1.394301,-11.659189,21.464064)" d="m 21.185135,4.5441666 9.999999,5.7735024 0,11.547005 -9.999999,5.773502 -10,-5.773503 10e-7,-11.547004 z"/>
 <path style="opacity:0.2" d="m 18,27.800002 13.999998,8.05 v 16.1 L 18,60 Z"/>
 <path style="fill:#366a90" d="M 18,27.8 4,35.85 18,43.9 32,35.85 Z"/>
 <path style="opacity:0.2" transform="matrix(1.4,0,0,1.394301,2.340811,-1.3359362)" d="m 21.185135,4.5441666 9.999999,5.7735024 0,11.547005 -9.999999,5.773502 -10,-5.773503 10e-7,-11.547004 z"/>
 <path style="fill:#447ede" transform="matrix(1.4,0,0,1.394301,2.340811,-2.335936)" d="m 21.185135,4.5441666 9.999999,5.7735024 0,11.547005 -9.999999,5.773502 -10,-5.773503 10e-7,-11.547004 z"/>
 <path style="opacity:0.2" d="m 32,4 13.999998,8.05 v 16.1 L 32,36.2 Z"/>
 <path style="fill:#649cff" d="M 32,3.9999998 18,12.05 32,20.1 46,12.05 Z"/>
 <path style="opacity:0.1" d="M 32.869141,36.349218 32,36.849218 46,44.9 l 14,-8.050782 -0.869141,-0.5 L 46,43.9 Z"/>
 <path style="opacity:0.1" d="M 4.8691406,36.349218 4,36.849218 18,44.9 l 14,-8.050782 -0.869141,-0.5 L 18,43.9 Z"/>
 <path style="opacity:0.1" d="M 18.869141,12.55039 18,13.05039 32,21.099218 46,13.05039 45.130859,12.55039 32,20.099218 Z"/>
 <path style="opacity:0.1;fill:#ffffff" d="M 46 27.800781 L 46 28.800781 L 59.130859 36.349609 L 60 35.849609 L 46 27.800781 z"/>
 <path style="opacity:0.1;fill:#ffffff" d="M 18 27.800781 L 4 35.849609 L 4.8691406 36.349609 L 18 28.800781 L 18 27.800781 z"/>
 <path style="opacity:0.2;fill:#ffffff" d="M 32 4 L 18 12.050781 L 18.869141 12.550781 L 32 5 L 45.130859 12.550781 L 46 12.050781 L 32 4 z"/>
</svg>

<svg xmlns="http://www.w3.org/2000/svg" width="64" height="64" version="1"><path style="opacity:.2" transform="matrix(1.4 0 0 1.3943 16.34 22.464)" d="m21.185 4.544 10 5.774v11.547l-10 5.773-10-5.773V10.318z"/><path style="opacity:.2" transform="matrix(1.4 0 0 1.3943 -11.66 22.464)" d="m21.185 4.544 10 5.774v11.547l-10 5.773-10-5.773V10.318z"/><path style="fill:#6e7e87" transform="matrix(1.4 0 0 1.3943 16.34 21.464)" d="m21.185 4.544 10 5.774v11.547l-10 5.773-10-5.773V10.318z"/><path style="opacity:.25" d="m46 27.8 14 8.05v16.1L46 60z"/><path style="fill:#83929a" d="m46 27.8-14 8.05 14 8.05 14-8.05z"/><path style="fill:#2f5d7c" transform="matrix(1.4 0 0 1.3943 -11.66 21.464)" d="m21.185 4.544 10 5.774v11.547l-10 5.773-10-5.773V10.318z"/><path style="opacity:.2" d="m18 27.8 14 8.05v16.1L18 60z"/><path style="fill:#366a90" d="M18 27.8 4 35.85l14 8.05 14-8.05z"/><path style="opacity:.2" transform="matrix(1.4 0 0 1.3943 2.34 -1.336)" d="m21.185 4.544 10 5.774v11.547l-10 5.773-10-5.773V10.318z"/><path style="fill:#447ede" transform="matrix(1.4 0 0 1.3943 2.34 -2.336)" d="m21.185 4.544 10 5.774v11.547l-10 5.773-10-5.773V10.318z"/><path style="opacity:.2" d="m32 4 14 8.05v16.1L32 36.2z"/><path style="fill:#649cff" d="m32 4-14 8.05 14 8.05 14-8.05z"/><path style="opacity:.1" d="m32.87 36.35-.87.5 14 8.05 14-8.05-.87-.5L46 43.9zM4.87 36.35l-.87.5 14 8.05 14-8.05-.87-.5L18 43.9zM18.87 12.55l-.87.5 14 8.05 14-8.05-.87-.5L32 20.1z"/><path style="opacity:.1;fill:#fff" d="M46 27.8v1l13.13 7.55.87-.5-14-8.05zM18 27.8 4 35.85l.87.5L18 28.8v-1z"/><path style="opacity:.2;fill:#fff" d="m32 4-14 8.05.87.5L32 5l13.13 7.55.87-.5L32 4z"/></svg>
